rospo-icon-theme-classic-common/48x48/apps/com.github.philip-scott.spice-up.svg

<svg height="48" width="48" xmlns="http://www.w3.org/2000/svg"><rect height="38" opacity=".2" rx="1.9" transform="scale(1 -1)" width="38" x="5" y="-45"/><rect fill="#e4e4e4" height="38" rx="1.9" transform="scale(1 -1)" width="38" x="5" y="-44"/><rect height="8" opacity=".2" rx="1.786" ry="1.498" width="42" x="3" y="5"/><rect fill="#4f4f4f" height="8" rx="1.786" ry="1.498" width="42" x="3" y="4"/><rect fill="#438bf6" height="24" rx="1.5" ry="1.2" transform="scale(1 -1)" width="30" x="9" y="-40"/><path d="m19.551822 22.000397a1.516435 1.4598166 0 0 0 -1.551822 1.459671v5.539335 5.540762a1.516435 1.4598166 0 0 0 2.274425 1.264383l4.984191-2.769669 4.984188-2.771093a1.516435 1.4598166 0 0 0 0-2.52734l-4.984188-2.771092-4.984191-2.769668a1.516435 1.4598166 0 0 0 -.722603-.195289z" opacity=".2"/><path d="m19.551822 21.000397a1.516435 1.4598166 0 0 0 -1.551822 1.459671v5.539335 5.540762a1.516435 1.4598166 0 0 0 2.274425 1.264383l4.984191-2.769669 4.984188-2.771093a1.516435 1.4598166 0 0 0 0-2.52734l-4.984188-2.771092-4.984191-2.769668a1.516435 1.4598166 0 0 0 -.722603-.195289z" fill="#fff"/><path d="m4.7851562 4c-.9892701 0-1.7851562.6684019-1.7851562 1.4980469v1c0-.829645.7958861-1.4980469 1.7851562-1.4980469h38.4296878c.98927 0 1.785156.6684019 1.785156 1.4980469v-1c0-.829645-.795886-1.4980469-1.785156-1.4980469z" fill="#fff" opacity=".1"/></svg>

<svg xmlns="http://www.w3.org/2000/svg" width="48" height="48" version="1">
 <rect width="38" height="38" x="5" y="-45" rx="1.9" ry="1.9" transform="scale(1,-1)" style="opacity:0.2"/>
 <rect style="fill:#cccccc" width="38" height="38" x="5" y="-44" rx="1.9" ry="1.9" transform="scale(1,-1)"/>
 <rect width="42" height="8" x="3" y="5" rx="1.786" ry="1.498" style="opacity:0.2"/>
 <rect style="fill:#4f4f4f" width="42" height="8" x="3" y="4" rx="1.786" ry="1.498"/>
 <rect width="30" height="24" x="9" y="-40" rx="1.5" ry="1.2" transform="scale(1,-1)" style="fill:#438bf6"/>
 <path d="M 19.551822,22.000397 A 1.516435,1.4598166 0 0 0 18,23.460068 l 0,5.539335 0,5.540762 a 1.516435,1.4598166 0 0 0 2.274425,1.264383 l 4.984191,-2.769669 4.984188,-2.771093 a 1.516435,1.4598166 0 0 0 0,-2.52734 l -4.984188,-2.771092 -4.984191,-2.769668 a 1.516435,1.4598166 0 0 0 -0.722603,-0.195289 z" style="opacity:0.2"/>
 <path style="fill:#ffffff" d="M 19.551822,21.000397 A 1.516435,1.4598166 0 0 0 18,22.460068 l 0,5.539335 0,5.540762 a 1.516435,1.4598166 0 0 0 2.274425,1.264383 l 4.984191,-2.769669 4.984188,-2.771093 a 1.516435,1.4598166 0 0 0 0,-2.52734 l -4.984188,-2.771092 -4.984191,-2.769668 a 1.516435,1.4598166 0 0 0 -0.722603,-0.195289 z"/>
 <path style="opacity:0.1;fill:#ffffff" d="M 4.7851562 4 C 3.7958861 4 3 4.6684019 3 5.4980469 L 3 6.4980469 C 3 5.6684019 3.7958861 5 4.7851562 5 L 43.214844 5 C 44.204114 5 45 5.6684019 45 6.4980469 L 45 5.4980469 C 45 4.6684019 44.204114 4 43.214844 4 L 4.7851562 4 z"/>
</svg>
